!!!COM: Honegger, Arthur
!!!OTL: [T597_Hon-w32p17m1h14m1-8]
**kern	**dynam	**kern	**dynam	**kern	**dynam	**kern	**dynam	**kern	**dynam	**kern	**text	**text	**dynam	**kern	**text	**text	**dynam	**kern	**text	**text	**dynam	**kern	**text	**text	**dynam	**kern	**text	**text	**dynam	**kern	**kern	**dynam	**kern	**dynam	**kern	**dynam	**kern	**dynam	**kern	**dynam	**kern	**dynam	**kern	**dynam	**kern	**dynam	**kern	**dynam
*part20	*part20	*part19	*part19	*part18	*part18	*part17	*part17	*part16	*part16	*part15	*part15	*part15	*part15	*part14	*part14	*part14	*part14	*part13	*part13	*part13	*part13	*part12	*part12	*part12	*part12	*part11	*part11	*part11	*part11	*part10	*part9	*part9	*part8	*part8	*part7	*part7	*part6	*part6	*part5	*part5	*part4	*part4	*part3	*part3	*part2	*part2	*part1	*part1
*staff20	*	*staff19	*	*staff18	*	*staff17	*	*staff16	*	*staff15	*staff15	*staff15	*	*staff14	*staff14	*staff14	*	*staff13	*staff13	*staff13	*	*staff12	*staff12	*staff12	*	*staff11	*staff11	*staff11	*	*staff10	*staff9	*	*staff8	*	*staff7	*	*staff6	*	*staff5	*	*staff4	*	*staff3	*	*staff2	*	*staff1	*
*I"Contrabass	*	*I"Violoncello	*	*I"Viola	*	*I"Violin II	*	*I"Violin I	*	*I"Baritone Solo	*	*	*	*I"Bass	*	*	*	*I"Tenor	*	*	*	*I"Alto	*	*	*	*I"Soprano	*	*	*	*I"Récitant	*I"Trombone	*	*I"Trumpet in C II	*	*I"Trumpet in C I	*	*I"Horn in F	*	*I"Bassoon II	*	*I"Bassoon I	*	*I"English Horn I	*	*I"Flute	*	*I"Piccolo	*
*I'Cb.	*	*I'Vc.	*	*I'Vla.	*	*I'Vln. II	*	*I'Vln. I	*	*I'Bar. Solo	*	*	*	*I'B.	*	*	*	*I'T.	*	*	*	*I'A.	*	*	*	*I'S.	*	*	*	*I'Voice	*I'Tbn.	*	*I'C Tpt.	*	*I'C Tpt.	*	*I'Hn.	*	*I'Bsn. II	*	*I'Bsn. I	*	*I'Eng. Hn.	*	*I'Fl.	*	*I'Picc.	*
!!pagebreak:original
*clefF4	*	*clefF4	*	*clefC3	*	*clefG2	*	*clefG2	*	*clefF4	*	*	*	*clefF4	*	*	*	*clefGv2	*	*	*	*clefG2	*	*	*	*clefG2	*	*	*	*clefG2	*clefF4	*	*clefG2	*	*clefG2	*	*clefG2	*	*clefF4	*	*clefC4	*	*clefG2	*	*clefG2	*	*clefG2	*
*ITrd0c0	*	*	*	*	*	*	*	*	*	*	*	*	*	*	*	*	*	*ITrd0c0	*	*	*	*	*	*	*	*	*	*	*	*	*	*	*	*	*	*	*ITrd4c7	*	*	*	*	*	*ITrd4c7	*	*	*	*ITrd0c0	*
*k[]	*	*k[]	*	*k[]	*	*k[]	*	*k[]	*	*k[]	*	*	*	*k[]	*	*	*	*k[]	*	*	*	*k[]	*	*	*	*k[]	*	*	*	*k[]	*k[]	*	*k[]	*	*k[]	*	*k[]	*	*k[]	*	*k[]	*	*k[]	*	*k[]	*	*k[]	*
*C:	*	*C:	*	*C:	*	*C:	*	*C:	*	*C:	*	*	*	*C:	*	*	*	*C:	*	*	*	*C:	*	*	*	*C:	*	*	*	*C:	*C:	*	*C:	*	*C:	*	*C:	*	*C:	*	*C:	*	*C:	*	*C:	*	*C:	*
*M6/8	*	*M6/8	*	*M6/8	*	*M6/8	*	*M6/8	*	*M6/8	*	*	*	*M6/8	*	*	*	*M6/8	*	*	*	*M6/8	*	*	*	*M6/8	*	*	*	*M6/8	*M6/8	*	*M6/8	*	*M6/8	*	*M6/8	*	*M6/8	*	*M6/8	*	*M6/8	*	*M6/8	*	*M6/8	*
=1	=1	=1	=1	=1	=1	=1	=1	=1	=1	=1	=1	=1	=1	=1	=1	=1	=1	=1	=1	=1	=1	=1	=1	=1	=1	=1	=1	=1	=1	=1	=1	=1	=1	=1	=1	=1	=1	=1	=1	=1	=1	=1	=1	=1	=1	=1	=1	=1
!LO:TX:a:t=[arco]	!	!LO:TX:a:t=[arco]	!	!	!	!	!	!LO:TX:a:t=14	!	!	!	!	!	!	!	!	!	!	!	!	!	!	!	!	!	!	!	!	!	!	!	!	!	!	!	!	!	!	!	!	!	!	!	!	!	!	!	!
!LO:TX:b:i:t=]	!	!LO:TX:b:i:t=]	!	!LO:TX:b:i:t=]	!	!LO:TX:b:i:t=]	!	!LO:TX:b:i:t=]	!	!	!	!	!	!LO:TX:a:i:t=]	!	!	!	!	!	!	!	!	!	!	!	!	!	!	!	!LO:TX:b:t=Die Herren!	!LO:TX:b:i:t=]	!	!LO:TX:b:i:t=]	!	!LO:TX:b:i:t=]	!	!LO:TX:b:i:t=]	!	!LO:TX:b:i:t=]	!	!LO:TX:b:i:t=]	!	!	!	!	!	!	!
!LO:TX:b:i:t=[	!	!LO:TX:b:i:t=[	!	!LO:TX:b:i:t=[	!	!LO:TX:b:i:t=[	!	!LO:TX:b:i:t=[	!	!	!	!	!	!LO:TX:a:i:t=[	!	!	!	!	!	!	!	!	!	!	!	!	!	!	!	!LO:TX:a:t=Les Messieurs!	!LO:TX:b:i:t=[	!	!LO:TX:b:i:t=[	!	!LO:TX:b:i:t=[	!	!LO:TX:b:i:t=[	!	!LO:TX:b:i:t=[	!	!LO:TX:b:i:t=[	!	!	!	!	!	!LO:TX:a:t=14	!
4AA	ff	4AA	ff	8cn 8f	ff	8f 8cc 8ff	ff	8f 8cc 8ff	ff	16FnLL	Souviens-	Den-	p	4Cn	danse	tanzt,	f	8cn	rond	Rund,	f	8ccn	- ron	klingt!	f	8ffn	- ron	klingt!	f	4%3r	8AA 8cn	ff	8cc	ff	8ff	ff	8f 8cc	ff	8AA	ff	8c	ff	8ffL	fp	8ccnL	.	(8ffL)	fp
.	.	.	.	.	.	.	.	.	.	16FJ	.	-ke	.	.	.	.	.	.	.	.	.	.	.	.	.	.	.	.	.	.	.	.	.	.	.	.	.	.	.	.	.	.	.	.	.	.	.	.
.	.	.	.	8r	.	8r	.	8r	.	8FJ	-toi	doch,	.	.	.	.	.	8r	.	.	.	8r	.	.	.	4r	.	.	.	.	8r	.	8r	.	8r	.	8r	.	8r	.	8r	.	8r	.	8r	.	8r	.
8r	.	8r	.	8r	.	8r	.	8r	.	8r	.	.	.	8r	.	.	.	8A	en	im	p	8a	en	Im	p	.	.	.	.	.	8r	.	8r	.	8r	.	8f 8a	p	8r	.	8r	.	8ddd'J	.	8ddd'J	p	8ee~J	.
!LO:TX:a:t=Pizz.	!	!LO:TX:a:t=Pizz.	!	!	!	!	!	!	!	!	!	!	!	!	!	!	!	!	!	!	!	!	!	!	!	!	!	!	!	!	!	!	!	!	!	!	!	!	!	!	!	!	!	!	!	!	!	!
4FF	p	4FF	p	4r	.	4r	.	4r	.	[4F	hom-	Mensch,	.	4r	.	.	.	8Bn	rond	Rund,	.	8bn	rond	Rund,	.	4r	.	.	.	.	4r	.	4r	.	4r	.	4e 4bX	.	4r	.	4r	.	8ddd-X'L	.	8ddd-X'L	.	8dd-X'	.
.	.	.	.	.	.	.	.	.	.	.	.	.	.	.	.	.	.	8r	.	.	.	8r	.	.	.	.	.	.	.	.	.	.	.	.	.	.	.	.	.	.	.	.	8r	.	8r	.	8r	.
8r	.	8r	.	8r	.	8r	.	8r	.	8F]	-me	.	.	8c	y	man	p	8r	.	.	.	8r	.	.	.	8cc	en	Im	p	.	8r	.	8r	.	8r	.	8r	.	8r	.	8r	.	8ccc'J	.	8ccc'J	.	8r	.
=2	=2	=2	=2	=2	=2	=2	=2	=2	=2	=2	=2	=2	=2	=2	=2	=2	=2	=2	=2	=2	=2	=2	=2	=2	=2	=2	=2	=2	=2	=2	=2	=2	=2	=2	=2	=2	=2	=2	=2	=2	=2	=2	=2	=2	=2	=2	=2	=2
4F	.	4F	.	((4c	p	((4bn	p	4%3r	.	8FL	que	dass	.	4F	danse	tanzt,	.	4r	.	.	.	4r	.	.	.	4f	rond	Rund	.	4%3r	4%3r	.	4%3r	.	4%3r	.	4r	.	4%3r	.	4%3r	.	4%3r	.	8aa-X'L	.	8aa-X'L	.
.	.	.	.	.	.	.	.	.	.	8F	tu	du	.	.	.	.	.	.	.	.	.	.	.	.	.	.	.	.	.	.	.	.	.	.	.	.	.	.	.	.	.	.	.	.	8r	.	8r	.
8r	.	8r	.	8a)	.	8dd)	.	.	.	8FJ	es	vom	.	8r	.	.	.	8A	en	im	.	8a	en	im	.	8r	.	.	.	.	.	.	.	.	.	.	8r	.	.	.	.	.	.	.	8bbn'J	.	8bbn'J	.
4C	.	4C	.	8bn')	.	8ff')	.	.	.	8FL	es-	Geist	.	4r	.	.	.	8B	rond	Rund,	.	8b	rond	Rund!	.	4.r	.	.	.	.	.	.	.	.	.	.	8.g#XL 8.b	.	.	.	.	.	.	.	4ff	.	4ff	.
.	.	.	.	8r	.	8r	.	.	.	8FJ	-prit	bist,	.	.	.	.	.	8r	.	.	.	8r	.	.	.	.	.	.	.	.	.	.	.	.	.	.	.	.	.	.	.	.	.	.	.	.	.	.
.	.	.	.	.	.	.	.	.	.	.	.	.	.	.	.	.	.	.	.	.	.	.	.	.	.	.	.	.	.	.	.	.	.	.	.	.	16g#k 16b	.	.	.	.	.	.	.	.	.	.	.
8r	.	8r	.	8r	.	8r	.	.	.	8r	.	.	.	8c	y	man	.	8c	en	im	.	8r	.	.	.	.	.	.	.	.	.	.	.	.	.	.	8gJ 8b-	.	.	.	.	.	.	.	8r	.	8r	.
=3	=3	=3	=3	=3	=3	=3	=3	=3	=3	=3	=3	=3	=3	=3	=3	=3	=3	=3	=3	=3	=3	=3	=3	=3	=3	=3	=3	=3	=3	=3	=3	=3	=3	=3	=3	=3	=3	=3	=3	=3	=3	=3	=3	=3	=3	=3	=3	=3
!	!	!	!	!	!	!	!	!	!	!	!	!	!	!	!	!	!	!	!	!	!	!	!	!	!	!	!	!	!	!LO:TX:b:t=Die Damen	!	!	!	!	!	!	!	!	!	!	!	!	!	!	!	!	!	!
!	!	!LO:TX:a:t=arco	!	!	!	!	!	!	!	!	!	!	!	!	!	!	!	!	!	!	!	!	!	!	!	!	!	!	!	!LO:TX:a:t=Les Dames!	!	!	!	!	!	!	!	!	!	!	!	!	!	!	!	!	!	!
4AA	.	(4.AA	.	(4.c	.	(2.f	.	(4.cc	p	8r	.	.	.	4F	danse	tanzt,	.	4F	rond	Rund,	.	16%3fL	Sur	Wohl	.	([4.ff	En-	tre-	.	4%3r	4%3r	.	4%3r	.	4%3r	.	4f 4cc	.	(4.AA	p	4%3r	.	4%3r	.	(2.ff	.	(4.ccc	.
.	.	.	.	.	.	.	.	.	.	8FL	et	und	.	.	.	.	.	.	.	.	.	.	.	.	.	.	.	.	.	.	.	.	.	.	.	.	.	.	.	.	.	.	.	.	.	.	.	.
.	.	.	.	.	.	.	.	.	.	.	.	.	.	.	.	.	.	.	.	.	.	16%3fJ	le	am	.	.	.	.	.	.	.	.	.	.	.	.	.	.	.	.	.	.	.	.	.	.	.	.
8r	.	.	.	.	.	.	.	.	.	8FJ	la	das	.	8r	.	.	.	8r	.	.	.	.	.	.	.	.	.	.	.	.	.	.	.	.	.	.	8r	.	.	.	.	.	.	.	.	.	.	.
4r	.	4.FF)	.	4.c#X	.	.	.	4.cc#X	.	4F	chair	Fleisch	.	4r	.	.	.	4r	.	.	.	4.f	pont	Rand	.	4ff]	.	.	.	.	.	.	.	.	.	.	4r	.	4.F	.	.	.	.	.	.	.	4.ccc#X	.
8r	.	.	.	.	.	.	.	.	.	8F	est	mehr	.	8A	y	man	.	8r	.	.	.	.	.	.	.	8ff)	-trez	-tet	.	.	.	.	.	.	.	.	8r	.	.	.	.	.	.	.	.	.	.	.
=4	=4	=4	=4	=4	=4	=4	=4	=4	=4	=4	=4	=4	=4	=4	=4	=4	=4	=4	=4	=4	=4	=4	=4	=4	=4	=4	=4	=4	=4	=4	=4	=4	=4	=4	=4	=4	=4	=4	=4	=4	=4	=4	=4	=4	=4	=4	=4	=4
!	!	!	!	!	!	!	!	!	!	!	!	!	!	!	!	!	!	!	!	!	!	!	!	!	!	!	!	!	!	!LO:TX:b:t=Die Jungfrauen!	!	!	!	!	!	!	!	!	!	!	!	!	!	!	!	!	!	!
!	!	!	!	!	!	!	!	!	!	!	!	!	!	!	!	!	!	!	!	!	!	!	!	!	!	!	!	!	!	!LO:TX:a:t=Les Demoiselles!	!	!	!	!	!	!	!	!	!	!	!	!	!	!	!	!	!	!
4%3r	.	(4.BB-X	.	4.d	.	2.g)	.	4.dd	.	4F	plus	wart	.	4D	danse	tanzt!	.	4r	.	.	.	16%3gL	de	unseres	.	[4.ff	dans	an	.	4%3r	4%3r	.	4%3r	.	4%3r	.	4%3r	.	4.B-X	.	4%3r	.	4%3r	.	2.gg)	.	4.ddd	.
.	.	.	.	.	.	.	.	.	.	.	.	.	.	.	.	.	.	.	.	.	.	16%3gJ	la	.	.	.	.	.	.	.	.	.	.	.	.	.	.	.	.	.	.	.	.	.	.	.	.	.
.	.	.	.	.	.	.	.	.	.	16FLL	que	als	.	8r	.	.	.	8r	.	.	.	.	.	.	.	.	.	.	.	.	.	.	.	.	.	.	.	.	.	.	.	.	.	.	.	.	.	.
.	.	.	.	.	.	.	.	.	.	16FJJ	le	wie	.	.	.	.	.	.	.	.	.	.	.	.	.	.	.	.	.	.	.	.	.	.	.	.	.	.	.	.	.	.	.	.	.	.	.	.
.	.	4.G)	.	4.c#X)	.	.	.	4.cc#X)	.	16FLL	vê-	dein	.	4r	.	.	.	4r	.	.	.	[16%3gL	tom-	Gra-	.	8ff]	.	.	.	.	.	.	.	.	.	.	.	.	4.G)	.	.	.	.	.	.	.	4.ccc#X)	.
.	.	.	.	.	.	.	.	.	.	16FJJ	-te-	Ge-	.	.	.	.	.	.	.	.	.	.	.	.	.	.	.	.	.	.	.	.	.	.	.	.	.	.	.	.	.	.	.	.	.	.	.	.
.	.	.	.	.	.	.	.	.	.	4F	-ment	-wand,	.	.	.	.	.	.	.	.	.	.	.	.	.	4gg	la	zum	.	.	.	.	.	.	.	.	.	.	.	.	.	.	.	.	.	.	.	.
.	.	.	.	.	.	.	.	.	.	.	.	.	.	.	.	.	.	.	.	.	.	16%3gJ]	-be	-bes	.	.	.	.	.	.	.	.	.	.	.	.	.	.	.	.	.	.	.	.	.	.	.	.
.	.	.	.	.	.	.	.	.	.	.	.	.	.	8r	.	.	.	8B-X	en	im	.	.	.	.	.	.	.	.	.	.	.	.	.	.	.	.	.	.	.	.	.	.	.	.	.	.	.	.
=5	=5	=5	=5	=5	=5	=5	=5	=5	=5	=5	=5	=5	=5	=5	=5	=5	=5	=5	=5	=5	=5	=5	=5	=5	=5	=5	=5	=5	=5	=5	=5	=5	=5	=5	=5	=5	=5	=5	=5	=5	=5	=5	=5	=5	=5	=5	=5	=5
4%3r	.	(4.D	.	(4.d	.	(2.a	.	(4.dd	.	4r	.	.	.	4%3r	.	.	.	4d	rond	Rund,	.	16%3a'L	on	tanzt	.	(2.ff	dan-	Tan-	.	4%3r	4%3r	.	4%3r	.	4%3r	.	4%3r	.	(4.D	.	4%3r	.	4%3r	.	(2.aa	.	(4.ccc	.
.	.	.	.	.	.	.	.	.	.	.	.	.	.	.	.	.	.	.	.	.	.	16%3b-X'J	y	im	.	.	.	.	.	.	.	.	.	.	.	.	.	.	.	.	.	.	.	.	.	.	.	.
.	.	.	.	.	.	.	.	.	.	8F	et	und	.	.	.	.	.	8r	.	.	.	.	.	.	.	.	.	.	.	.	.	.	.	.	.	.	.	.	.	.	.	.	.	.	.	.	.	.
.	.	4.AA)	.	4.d#X	.	.	.	4.dd#X	.	16F	l'es-	der	.	.	.	.	.	8r	.	.	.	16%3cc'L	dans'	Rei-	.	.	.	.	.	.	.	.	.	.	.	.	.	.	4.AA	.	.	.	.	.	.	.	4.ddd#X	.
.	.	.	.	.	.	.	.	.	.	4F	-prit	Geist	.	.	.	.	.	.	.	.	.	.	.	.	.	.	.	.	.	.	.	.	.	.	.	.	.	.	.	.	.	.	.	.	.	.	.	.
.	.	.	.	.	.	.	.	.	.	.	.	.	.	.	.	.	.	8r	.	.	.	.	.	.	.	.	.	.	.	.	.	.	.	.	.	.	.	.	.	.	.	.	.	.	.	.	.	.
.	.	.	.	.	.	.	.	.	.	.	.	.	.	.	.	.	.	.	.	.	.	16%3f'J	y	-gen,	.	.	.	.	.	.	.	.	.	.	.	.	.	.	.	.	.	.	.	.	.	.	.	.
.	.	.	.	.	.	.	.	.	.	.	.	.	.	.	.	.	.	8c	y	man	.	.	.	.	.	.	.	.	.	.	.	.	.	.	.	.	.	.	.	.	.	.	.	.	.	.	.	.
.	.	.	.	.	.	.	.	.	.	16F	est	ist	.	.	.	.	.	.	.	.	.	.	.	.	.	.	.	.	.	.	.	.	.	.	.	.	.	.	.	.	.	.	.	.	.	.	.	.
=6	=6	=6	=6	=6	=6	=6	=6	=6	=6	=6	=6	=6	=6	=6	=6	=6	=6	=6	=6	=6	=6	=6	=6	=6	=6	=6	=6	=6	=6	=6	=6	=6	=6	=6	=6	=6	=6	=6	=6	=6	=6	=6	=6	=6	=6	=6	=6	=6
!	!	!	!	!	!	!	!	!	!	!	!	!	!	!	!	!	!	!	!	!	!	!	!	!	!	!	!	!	!	!LO:TX:b:t=Alle Welt!	!	!	!	!	!	!	!	!	!	!	!	!	!	!	!	!	!	!
!	!	!	!	!	!	!	!	!	!	!	!	!	!	!	!	!	!	!	!	!	!	!	!	!	!	!	!	!	!	!LO:TX:a:t=Tout le monde!	!	!	!	!	!	!	!	!	!	!	!	!	!	!	!	!	!	!
4%3r	.	(4.GG	.	4.e	.	4.cc	.	4.ee	.	4F	plus	mehr	.	4%3r	.	.	.	4B-X	danse	tanzt,	.	16%3en'L	dans'	tanzt	.	4.cc)	-se	-ze!	.	4%3r	4%3r	.	4%3r	.	4%3r	.	4%3r	.	4.GG	.	4%3r	.	4%3r	.	4.ccc	.	4.eee	.
.	.	.	.	.	.	.	.	.	.	.	.	.	.	.	.	.	.	.	.	.	.	16%3f'J	y	im	.	.	.	.	.	.	.	.	.	.	.	.	.	.	.	.	.	.	.	.	.	.	.	.
.	.	.	.	.	.	.	.	.	.	16FLL	que	als	.	.	.	.	.	8r	.	.	.	.	.	.	.	.	.	.	.	.	.	.	.	.	.	.	.	.	.	.	.	.	.	.	.	.	.	.
.	.	.	.	.	.	.	.	.	.	16FJJ	la	das	.	.	.	.	.	.	.	.	.	.	.	.	.	.	.	.	.	.	.	.	.	.	.	.	.	.	.	.	.	.	.	.	.	.	.	.
.	.	4.BB-X)	.	8cL	.	4.g)	.	8ccL	.	4F	chair	Fleisch,	.	.	.	.	.	4r	.	.	.	16%3g'L	dan-	Rei-	.	4r	.	.	.	.	.	.	.	.	.	.	.	.	4.BB-X)	.	.	.	.	.	4.gg)	.	8cccL	.
.	.	.	.	8d	.	.	.	8dd	.	.	.	.	.	.	.	.	.	.	.	.	.	.	.	.	.	.	.	.	.	.	.	.	.	.	.	.	.	.	.	.	.	.	.	.	.	.	8ddd	.
.	.	.	.	.	.	.	.	.	.	.	.	.	.	.	.	.	.	.	.	.	.	16%3c'J	-se	-gen	.	.	.	.	.	.	.	.	.	.	.	.	.	.	.	.	.	.	.	.	.	.	.	.
.	.	.	.	8eJ)	.	.	.	8eeJ)	.	8F	et	und	.	.	.	.	.	8c	en	im	.	.	.	.	.	8r	.	.	.	.	.	.	.	.	.	.	.	.	.	.	.	.	.	.	.	.	8eeeJ)	.
=7	=7	=7	=7	=7	=7	=7	=7	=7	=7	=7	=7	=7	=7	=7	=7	=7	=7	=7	=7	=7	=7	=7	=7	=7	=7	=7	=7	=7	=7	=7	=7	=7	=7	=7	=7	=7	=7	=7	=7	=7	=7	=7	=7	=7	=7	=7	=7	=7
4%3r	.	(4.AA	.	(4.c	.	(2.f	.	(4.cc	.	4F	l'oeil	mehr	.	16%3F'L	sur	wohl	.	4F	rond	Rund,	.	16%3f'L	sur	Wohl	.	([4.ff	voy-	Seht,	.	4%3r	4%3r	.	4%3r	.	4%3r	.	4%3r	.	(4.AA	.	4%3r	.	(2.ff	.	(4.ccc	.	4%3r	.
.	.	.	.	.	.	.	.	.	.	.	.	.	.	16%3F'J	le	am	.	.	.	.	.	16%3f'J	le	am	.	.	.	.	.	.	.	.	.	.	.	.	.	.	.	.	.	.	.	.	.	.	.	.
.	.	.	.	.	.	.	.	.	.	8F	est	das	.	.	.	.	.	8r	.	.	.	.	.	.	.	.	.	.	.	.	.	.	.	.	.	.	.	.	.	.	.	.	.	.	.	.	.	.
.	.	4.FF)	.	4.c#X	.	.	.	4.cc#X	.	8FL	plus	Aug	.	4.F'	pont	Rand	.	4r	.	.	.	4.f'	pont	Rand	.	4ff]	.	.	.	.	.	.	.	.	.	.	.	.	4.F	.	.	.	.	.	4.ccc#X	.	.	.
.	.	.	.	.	.	.	.	.	.	8F	que	als	.	.	.	.	.	.	.	.	.	.	.	.	.	.	.	.	.	.	.	.	.	.	.	.	.	.	.	.	.	.	.	.	.	.	.	.
.	.	.	.	.	.	.	.	.	.	8FJ	le	dein	.	.	.	.	.	8A	y	man	.	.	.	.	.	8ff)	-ez	wie	.	.	.	.	.	.	.	.	.	.	.	.	.	.	.	.	.	.	.	.
=8	=8	=8	=8	=8	=8	=8	=8	=8	=8	=8	=8	=8	=8	=8	=8	=8	=8	=8	=8	=8	=8	=8	=8	=8	=8	=8	=8	=8	=8	=8	=8	=8	=8	=8	=8	=8	=8	=8	=8	=8	=8	=8	=8	=8	=8	=8	=8	=8
!	!	!	!	!	!	!	!	!	!	!	!	!	!	!	!	!	!	!	!	!	!	!	!	!	!	!	!	!	!	!LO:TX:b:t=Herrschaften, herhein!	!	!	!	!	!	!	!	!	!	!	!	!	!	!	!	!	!	!
!	!	!	!	!	!	!	!	!	!	!	!	!	!	!	!	!	!	!	!	!	!	!	!	!	!	!	!	!	!	!LO:TX:a:t=Entrez la compagnie!	!	!	!	!	!	!	!	!	!	!	!	!	!	!	!	!	!	!
4%3r	.	(4.BB-X	.	4.d	.	2.g)	.	4.dd	.	8F	vi-	Ant-	.	16%3GL	de	uns-	.	4d	danse	tanzt,	.	16%3gL	de	uns-	.	[4.ff	comme	al-	.	4%3r	4%3r	.	4%3r	.	4%3r	.	4%3r	.	4.B-X	.	4%3r	.	2.gg)	.	4.ddd	.	4%3r	.
.	.	.	.	.	.	.	.	.	.	[4F	-sage	-litz	.	.	.	.	.	.	.	.	.	.	.	.	.	.	.	.	.	.	.	.	.	.	.	.	.	.	.	.	.	.	.	.	.	.	.	.
.	.	.	.	.	.	.	.	.	.	.	.	.	.	16%3GJ	la	-res	.	.	.	.	.	16%3gJ	la	-res	.	.	.	.	.	.	.	.	.	.	.	.	.	.	.	.	.	.	.	.	.	.	.	.
.	.	.	.	.	.	.	.	.	.	.	.	.	.	.	.	.	.	8r	.	.	.	.	.	.	.	.	.	.	.	.	.	.	.	.	.	.	.	.	.	.	.	.	.	.	.	.	.	.
.	.	4.G)	.	4.c#X)	.	.	.	4.cc#X)	.	4F]	.	.	.	[16%3GL	tom-	Gra-	.	4r	.	.	.	[16%3gL	tom-	Gra-	.	8ff]	.	.	.	.	.	.	.	.	.	.	.	.	4.G)	.	.	.	.	.	4.ccc#X)	.	.	.
.	.	.	.	.	.	.	.	.	.	.	.	.	.	.	.	.	.	.	.	.	.	.	.	.	.	4gg	on	-te	.	.	.	.	.	.	.	.	.	.	.	.	.	.	.	.	.	.	.	.
.	.	.	.	.	.	.	.	.	.	.	.	.	.	16%3GJ]	-be	-bes	.	.	.	.	.	16%3gJ]	-be	-bes	.	.	.	.	.	.	.	.	.	.	.	.	.	.	.	.	.	.	.	.	.	.	.	.
.	.	.	.	.	.	.	.	.	.	8F	et	und	.	.	.	.	.	8B-X	en	im	.	.	.	.	.	.	.	.	.	.	.	.	.	.	.	.	.	.	.	.	.	.	.	.	.	.	.	.
=	=	=	=	=	=	=	=	=	=	=	=	=	=	=	=	=	=	=	=	=	=	=	=	=	=	=	=	=	=	=	=	=	=	=	=	=	=	=	=	=	=	=	=	=	=	=	=	=
*-	*-	*-	*-	*-	*-	*-	*-	*-	*-	*-	*-	*-	*-	*-	*-	*-	*-	*-	*-	*-	*-	*-	*-	*-	*-	*-	*-	*-	*-	*-	*-	*-	*-	*-	*-	*-	*-	*-	*-	*-	*-	*-	*-	*-	*-	*-	*-	*-
!!!system-decoration: [(s1,s2,s3[(s4,s5)])][(s6[(s7,s8)]s9)][(s10[(s11,s12,s13,s14)]s15)][([(s16,s17)]s18[(s19,s20)])]
